X: 1
T:The Wink of Her Eye -- Jig
M:6/8
L:1/8
C:J. HAND.
R:jig
B:Ryan's Mammoth Collection
N:85 437
Z:Contributed by Ray Davies,  ray:davies99.freeserve.co.uk
K:D
ua|\
ged cA(G | F)DE FDE | F>ED d>ef | {a}g>fg e>ag |
fed cAG | cAG FDE | DFA dag | fdd d2:|
|:u(f/g/)|\
ka3  dfa- | agb afd | g>gg- g>ef | ged c>AG |
F>ED dcd | edc d2e | fed cAG | D>FA d2:|
